flaticon/design/background-2.svg

<svg xmlns="http://www.w3.org/2000/svg" width="32" height="32" viewBox="0 0 24 24">
    <path d="M4.886719 16.800781L4.457031 16.800781C4.238281 16.800781 4.058594 16.980469 4.058594 17.199219 4.058594 17.421875 4.238281 17.601562 4.457031 17.601562L4.886719 17.601562C5.105469 17.601562 5.285156 17.421875 5.285156 17.199219 5.285156 16.980469 5.105469 16.800781 4.886719 16.800781zM2.742188 16.800781L2.3125 16.800781C2.09375 16.800781 1.914062 16.980469 1.914062 17.199219 1.914062 17.421875 2.09375 17.601562 2.3125 17.601562L2.742188 17.601562C2.964844 17.601562 3.144531 17.421875 3.144531 17.199219 3.144531 16.980469 2.964844 16.800781 2.742188 16.800781zM.765625 16.835938C.703125 16.695312.5625 16.601562.398438 16.601562.179688 16.601562 0 16.777344 0 17L0 17.601562.601562 17.601562C.820312 17.601562 1 17.421875 1 17.199219 1 17.039062.902344 16.898438.765625 16.835938zM.398438 13.613281C.621094 13.613281.800781 13.4375.800781 13.214844L.800781 12.792969C.800781 12.574219.621094 12.394531.398438 12.394531.179688 12.394531 0 12.574219 0 12.792969L0 13.214844C0 13.4375.179688 13.613281.398438 13.613281zM.398438 11.511719C.621094 11.511719.800781 11.335938.800781 11.113281L.800781 10.691406C.800781 10.472656.621094 10.292969.398438 10.292969.179688 10.292969 0 10.472656 0 10.691406L0 11.113281C0 11.335938.179688 11.511719.398438 11.511719zM.398438 9.410156C.621094 9.410156.800781 9.230469.800781 9.011719L.800781 8.589844C.800781 8.367188.621094 8.191406.398438 8.191406.179688 8.191406 0 8.367188 0 8.589844L0 9.011719C0 9.230469.179688 9.410156.398438 9.410156zM.398438 3.101562C.621094 3.101562.800781 2.925781.800781 2.703125L.800781 2.28125C.800781 2.0625.621094 1.882812.398438 1.882812.179688 1.882812 0 2.0625 0 2.28125L0 2.703125C0 2.925781.179688 3.101562.398438 3.101562zM.398438 7.308594C.621094 7.308594.800781 7.128906.800781 6.90625L.800781 6.488281C.800781 6.265625.621094 6.085938.398438 6.085938.179688 6.085938 0 6.265625 0 6.488281L0 6.90625C0 7.128906.179688 7.308594.398438 7.308594zM.398438 5.207031C.621094 5.207031.800781 5.027344.800781 4.804688L.800781 4.386719C.800781 4.164062.621094 3.984375.398438 3.984375.179688 3.984375 0 4.164062 0 4.386719L0 4.804688C0 5.027344.179688 5.207031.398438 5.207031zM.398438 15.71875C.621094 15.71875.800781 15.539062.800781 15.316406L.800781 14.898438C.800781 14.675781.621094 14.496094.398438 14.496094.179688 14.496094 0 14.675781 0 14.898438L0 15.316406C0 15.539062.179688 15.71875.398438 15.71875zM.601562 0L0 0 0 .601562C0 .820312.179688 1 .398438 1 .5625 1 .703125.902344.765625.765625.902344.703125 1 .5625 1 .398438 1 .179688.820312 0 .601562 0zM4.386719.800781L4.804688.800781C5.027344.800781 5.207031.621094 5.207031.398438 5.207031.179688 5.027344 0 4.804688 0L4.386719 0C4.164062 0 3.984375.179688 3.984375.398438 3.984375.621094 4.164062.800781 4.386719.800781zM8.589844.800781L9.011719.800781C9.230469.800781 9.410156.621094 9.410156.398438 9.410156.179688 9.230469 0 9.011719 0L8.589844 0C8.367188 0 8.191406.179688 8.191406.398438 8.191406.621094 8.367188.800781 8.589844.800781zM12.792969.800781L13.214844.800781C13.4375.800781 13.613281.621094 13.613281.398438 13.613281.179688 13.4375 0 13.214844 0L12.792969 0C12.574219 0 12.394531.179688 12.394531.398438 12.394531.621094 12.574219.800781 12.792969.800781zM10.691406.800781L11.113281.800781C11.335938.800781 11.511719.621094 11.511719.398438 11.511719.179688 11.335938 0 11.113281 0L10.691406 0C10.472656 0 10.292969.179688 10.292969.398438 10.292969.621094 10.472656.800781 10.691406.800781zM14.898438.800781L15.316406.800781C15.539062.800781 15.71875.621094 15.71875.398438 15.71875.179688 15.539062 0 15.316406 0L14.898438 0C14.675781 0 14.496094.179688 14.496094.398438 14.496094.621094 14.675781.800781 14.898438.800781zM2.28125.800781L2.703125.800781C2.925781.800781 3.101562.621094 3.101562.398438 3.101562.179688 2.925781 0 2.703125 0L2.28125 0C2.0625 0 1.882812.179688 1.882812.398438 1.882812.621094 2.0625.800781 2.28125.800781zM6.488281.800781L6.90625.800781C7.128906.800781 7.308594.621094 7.308594.398438 7.308594.179688 7.128906 0 6.90625 0L6.488281 0C6.265625 0 6.085938.179688 6.085938.398438 6.085938.621094 6.265625.800781 6.488281.800781zM16.835938.765625C16.898438.902344 17.039062 1 17.199219 1 17.421875 1 17.601562.820312 17.601562.601562L17.601562 0 17 0C16.777344 0 16.601562.179688 16.601562.398438 16.601562.5625 16.695312.703125 16.835938.765625zM17.601562 2.3125C17.601562 2.09375 17.421875 1.914062 17.199219 1.914062 16.980469 1.914062 16.800781 2.09375 16.800781 2.3125L16.800781 2.742188C16.800781 2.964844 16.980469 3.144531 17.199219 3.144531 17.421875 3.144531 17.601562 2.964844 17.601562 2.742188zM17.199219 4.058594C16.980469 4.058594 16.800781 4.238281 16.800781 4.457031L16.800781 4.886719C16.800781 5.105469 16.980469 5.285156 17.199219 5.285156 17.421875 5.285156 17.601562 5.105469 17.601562 4.886719L17.601562 4.457031C17.601562 4.238281 17.421875 4.058594 17.199219 4.058594zM17.539062 6.398438C17.46875 6.28125 17.347656 6.199219 17.199219 6.199219 17.054688 6.199219 16.929688 6.28125 16.859375 6.398438L16.800781 6.398438 16.800781 16.800781 6.398438 16.800781 6.398438 16.859375C6.28125 16.929688 6.199219 17.054688 6.199219 17.199219 6.199219 17.347656 6.28125 17.46875 6.398438 17.539062L6.398438 24 24 24 24 6.398438zM23.199219 23.199219L7.199219 23.199219 7.199219 17.601562 17.601562 17.601562 17.601562 7.199219 23.199219 7.199219zM23.199219 23.199219"/>
</svg>

<svg xmlns="http://www.w3.org/2000/svg" width="32" height="32" viewBox="0 0 24 24">
    <path d="M4.887 16.8h-.43a.4.4 0 0 0 0 .802h.43a.401.401 0 0 0 0-.801zm0 0M2.742 16.8h-.43a.4.4 0 0 0 0 .802h.43a.401.401 0 0 0 0-.8zm0 0M.766 16.836a.398.398 0 0 0-.368-.234A.398.398 0 0 0 0 17v.602h.602a.401.401 0 0 0 .164-.766zm0 0M.398 13.613a.398.398 0 0 0 .403-.398v-.422a.401.401 0 0 0-.801 0v.422c0 .223.18.398.398.398zm0 0M.398 11.512a.398.398 0 0 0 .403-.399v-.422a.401.401 0 0 0-.801 0v.422c0 .223.18.399.398.399zm0 0M.398 9.41c.223 0 .403-.18.403-.398V8.59a.398.398 0 0 0-.403-.399A.398.398 0 0 0 0 8.59v.422a.4.4 0 0 0 .398.398zm0 0M.398 3.102a.398.398 0 0 0 .403-.399v-.422a.401.401 0 0 0-.801 0v.422c0 .223.18.399.398.399zm0 0M.398 7.309c.223 0 .403-.18.403-.403v-.418a.401.401 0 0 0-.8 0l-.001.418c0 .223.18.403.398.403zm0 0M.398 5.207c.223 0 .403-.18.403-.402v-.418a.401.401 0 0 0-.8 0l-.001.418c0 .222.18.402.398.402zm0 0M.398 15.719c.223 0 .403-.18.403-.403v-.418a.401.401 0 0 0-.8 0l-.001.418c0 .223.18.403.398.403zm0 0M.602 0H0v.602a.4.4 0 0 0 .766.164A.4.4 0 0 0 .602 0zm0 0M4.387.8h.418a.401.401 0 0 0 0-.8h-.418a.401.401 0 1 0 0 .8zm0 0M8.59.8h.422a.401.401 0 0 0 0-.8H8.59a.398.398 0 0 0-.399.398c0 .223.176.403.399.403zm0 0M12.793.8h.422c.223 0 .398-.179.398-.402A.398.398 0 0 0 13.215 0h-.422a.4.4 0 0 0 0 .8zm0 0M10.691.8h.422c.223 0 .399-.179.399-.402A.398.398 0 0 0 11.113 0h-.422a.4.4 0 0 0 0 .8zm0 0M14.898.8h.418a.401.401 0 0 0 0-.8h-.418a.401.401 0 1 0 0 .8zm0 0M2.281.8h.422c.223 0 .399-.179.399-.402A.398.398 0 0 0 2.703 0h-.422a.4.4 0 0 0 0 .8zm0 0M6.488.8h.418a.401.401 0 0 0 0-.8h-.418a.401.401 0 1 0 0 .8zm0 0M16.836.766a.401.401 0 0 0 .766-.164V0H17a.398.398 0 0 0-.398.398c0 .164.093.305.234.368zm0 0M17.602 2.313a.401.401 0 0 0-.801 0v.43a.401.401 0 1 0 .8 0zm0 0M17.2 4.059a.4.4 0 0 0-.4.398v.43a.4.4 0 0 0 .802 0v-.43a.401.401 0 0 0-.403-.398zm0 0M17.54 6.398a.394.394 0 0 0-.34-.199.4.4 0 0 0-.34.2h-.06V16.8H6.399v.058a.4.4 0 0 0-.199.34c0 .149.082.27.2.34V24H24V6.398zM23.2 23.2h-16v-5.597h10.402V7.199h5.597zm0 0"/>
</svg>
